assets/portfolio/portfolio_uomo_2.svg

<?xml version="1.0" encoding="UTF-8"?><svg id="Layer_1" xmlns="http://www.w3.org/2000/svg" xmlns:xlink="http://www.w3.org/1999/xlink" viewBox="0 0 1366 768"><defs><style>.cls-1{clip-path:url(#clippath);}.cls-2{fill:#fff;}.cls-3{fill:red;}.cls-4,.cls-5{fill:#e50000;}.cls-5{stroke:#fff;}</style><clipPath id="clippath"><rect class="cls-4" x="-51.48" y="-88" width="1466.48" height="940.05"/></clipPath></defs><rect class="cls-3" x="-41.27" y="-79.94" width="1446.07" height="930.38"/><g><rect class="cls-4" x="-51.48" y="-88" width="1466.48" height="940.05"/><g class="cls-1"><rect class="cls-5" x="-41.27" y="-79.94" width="1446.07" height="930.38"/></g></g><g><path class="cls-2" d="M255.98,34.38v19.27h-70.48v61.82h70.48v19.27H94.87v-19.27h70.48V53.65H94.87v-19.27H255.98Z"/><path class="cls-2" d="M416.06,84.63c0,28.55-23.45,51.82-52.36,51.82s-52.5-23.41-52.5-51.82,23.59-51.96,52.5-51.96,52.36,23.56,52.36,51.96Zm-84.72,.14c0,17.42,14.53,31.69,32.22,31.69s32.37-14.28,32.37-31.84-14.53-31.98-32.37-31.98-32.22,14.56-32.22,32.12Z"/><path class="cls-2" d="M435.62,34.38l25.89,59.53,25.89-59.53h21l-45.45,100.36h-2.88l-45.46-100.36h21Z"/><path class="cls-2" d="M678.71,34.38v19.27h-140.97v22.27h140.97v18.56h-140.97v20.99h140.97v19.27h-161.11V34.38h161.11Z"/><path class="cls-2" d="M727.47,34.38c24.31,0,41.43,18.42,41.43,39.54,0,13.13-6.62,25.27-17.41,32.55l2.16,3.28c3.16,4.71,7.19,5.71,13.67,5.71v19.27c-16.25,0-22.3-2.86-29.2-13.56l-5.04-7.85c-1.58,.14-3.31,.29-4.89,.29h-10.93v21.13h-20.14V34.38h30.35Zm-10.21,59.25h10.79c11.36,0,20.71-8.28,20.71-19.56s-9.35-19.7-20.71-19.7h-10.79v39.26Z"/><path class="cls-2" d="M830.6,54.22h-10.64c-7.91,0-10.93,4.43-10.93,9.57,0,10.14,16.4,26.27,16.4,42.97s-11.22,27.98-32.37,27.98h-13.95v-19.99h9.06c8.49,0,14.1-3.71,14.1-11.14,0-10.42-16.25-27.12-16.25-43.97,0-15.13,11.22-25.27,30.06-25.27h14.53v19.84Z"/><path class="cls-2" d="M866.13,34.38V115.47h33.23v19.27h-53.37V34.38h20.14Z"/><path class="cls-2" d="M1007.53,34.38v19.27h-72.21v21.84h69.33v18.56h-69.33v21.41h72.21v19.27h-92.35V34.38h92.35Z"/><path class="cls-2" d="M1056.14,34.38c24.31,0,41.43,18.42,41.43,39.54s-16.97,39.12-40.71,39.69h-10.93v21.13h-20.14V34.38h30.35Zm-10.21,59.25h10.79c11.36,0,20.71-8.28,20.71-19.56s-9.35-19.7-20.71-19.7h-10.79v39.26Z"/><path class="cls-2" d="M1278.09,34.38v19.27h-76.24v81.09h-20.14V53.65h-76.24v-19.27h172.61Z"/><path class="cls-2" d="M187.43,251.74l-28.34-57.68-28.34,57.68h-8.49l-28.19-100.36h20.28l15.68,56.53,27.62-56.53h2.88l27.62,56.53,15.68-56.53h20.28l-28.19,100.36h-8.49Z"/><path class="cls-2" d="M256.47,151.38v41.54h43.87v-41.54h20.14v100.36h-20.14v-40.26h-43.87v40.26h-20.14v-100.36h20.14Z"/><path class="cls-2" d="M436.99,151.38v19.27h-72.21v21.84h69.33v18.56h-69.33v21.41h72.21v19.27h-92.35v-100.36h92.35Z"/><path class="cls-2" d="M458.13,151.38l167.29,71.1v-71.1h20.14v100.36h-2.88l-167.29-71.1v71.1h-20.14v-100.36h2.88Z"/><path class="cls-2" d="M878.86,151.38v19.27h-76.24v81.09h-20.14v-81.09h-76.24v-19.27h172.61Z"/><path class="cls-2" d="M893.53,251.74v-100.36h20.14v41.54h150.03v-41.54h20.14v100.36h-20.14v-40.26h-150.03v40.26h-20.14Z"/><path class="cls-2" d="M1266.22,151.38v19.27h-140.97v22.27h140.97v18.56h-140.97v20.99h140.97v19.27h-161.11v-100.36h161.11Z"/><path class="cls-2" d="M160.53,347.47s-1.15,.14-4.03,.14h-39.41v21.13h-20.14v-100.36h59.26c24.31,0,41.43,18.42,41.43,39.54,0,13.42-6.9,25.7-17.98,32.98l1.87,2.85c3.16,4.71,7.62,5.71,15.1,5.71v19.27c-16.25,0-23.3-3.14-30.64-13.56l-5.47-7.71Zm-43.44-19.84h39.7c11.36,0,20.71-8.28,20.71-19.56s-9.35-19.7-20.71-19.7h-39.7v39.26Z"/><path class="cls-2" d="M304.66,359.46h-68.33l-5.61,9.28h-22.87l61.28-100.36h2.88l61.13,100.36h-22.87l-5.61-9.28Zm-57.11-18.56h45.89l-22.87-38.12-23.02,38.12Z"/><path class="cls-2" d="M364.06,268.38v100.36h-20.14v-100.36h20.14Z"/><path class="cls-2" d="M388.23,268.38l61.13,56.82v-56.82h20.14v100.36h-2.88l-61.13-56.82v56.82h-20.14v-100.36h2.88Z"/><path class="cls-2" d="M675.48,268.38c21.58,0,35.53,13.85,35.53,30.98,0,9.42-4.32,16.13-10.93,20.56,5.32,4.57,8.78,10.85,8.78,18.13,0,17.13-13.95,30.69-35.53,30.69h-136.51v-100.36h138.67Zm-118.53,41.97h118.1c10.36,0,15.25-5,15.25-10.99s-4.89-10.99-15.25-10.99h-118.1v21.99Zm0,38.4h115.94c10.36,0,15.25-4.71,15.25-10.71s-4.89-9.99-15.25-9.99h-115.94v20.7Z"/><path class="cls-2" d="M888.21,268.38v19.27h-140.97v22.27h140.97v18.56h-140.97v20.99h140.97v19.27h-161.11v-100.36h161.11Z"/><path class="cls-2" d="M1002.13,287.65h-47.47c-19.85,0-31.93,13.56-31.93,30.69s12.08,31.12,32.08,31.12h32.08v-30.84h18.27v50.11h-50.35c-31.36,0-52.36-21.7-52.36-50.39s20.86-49.97,51.5-49.97h48.19v19.27Z"/><path class="cls-2" d="M1046.14,268.38v54.25c0,16.27,11.65,27.84,33.8,27.84s33.8-11.56,33.8-27.84v-54.25h20.14l-.14,55.68c0,23.13-18.84,46.11-53.8,46.11s-53.94-22.98-53.94-46.11v-55.68h20.14Z"/><path class="cls-2" d="M1162.51,268.38l86.88,62.53v-62.53h20.14v100.36h-2.88l-86.88-62.53v62.53h-20.14v-100.36h2.88Z"/><path class="cls-2" d="M118.98,385.38l30.62,100.36h-21.79l-2.42-10.28h-18.65l-2.28,10.28h-21.5l30.33-100.36h5.7Zm-4.98,57.53l-3.42,15.7h10.96l-3.28-15.7-2.14-17.13-2.14,17.13Z"/><path class="cls-2" d="M181.92,385.38v81.09h63.22v19.27h-83.16v-100.36h19.94Z"/><path class="cls-2" d="M281.75,385.38v81.09h63.22v19.27h-83.16v-100.36h19.94Z"/><path class="cls-2" d="M417.88,385.38v100.36h-19.94v-100.36h19.94Z"/><path class="cls-2" d="M485.09,385.38l60.52,56.82v-56.82h19.94v100.36h-2.85l-60.52-56.82v56.82h-19.94v-100.36h2.85Z"/><path class="cls-2" d="M704.24,435.63c0,28.7-20.08,51.82-60.66,51.82s-61.23-23.41-61.23-51.82,20.22-51.96,61.23-51.96,60.66,23.56,60.66,51.96Zm-101.96,0c0,17.56,11.25,31.84,41.29,31.84s40.73-14.28,40.73-31.84-11.39-31.98-40.87-31.98-41.15,14.42-41.15,31.98Z"/><path class="cls-2" d="M812.46,385.38v19.27h-41.15v81.09h-19.93v-81.09h-41.15v-19.27h102.24Z"/><path class="cls-2" d="M845.21,385.38v100.36h-19.94v-100.36h19.94Z"/><path class="cls-2" d="M959.13,404.65h-46.99c-19.65,0-31.61,13.56-31.61,30.69s11.96,31.12,31.75,31.12h46.85v19.27h-46.85c-31.04,0-51.83-21.7-51.83-50.39s20.65-49.97,50.98-49.97h47.7v19.27Z"/><path class="cls-2" d="M1070.34,385.38v19.27h-71.48v21.84h68.63v18.56h-68.63v21.41h71.48v19.27h-91.42v-100.36h91.42Z"/><path class="cls-2" d="M1226.41,385.38c28.62,0,51.69,21.56,51.69,50.25s-23.07,50.11-51.69,50.11h-137.98v-100.36h137.98Zm-118.04,81.09h118.04c17.51,0,31.75-13.28,31.75-30.84s-14.24-30.98-31.75-30.98h-118.04v61.82Z"/><path class="cls-2" d="M185.78,602.74l-28.34-57.68-28.34,57.68h-8.49l-28.19-100.36h20.28l15.68,56.53,27.62-56.53h2.88l27.62,56.53,15.68-56.53h20.28l-28.19,100.36h-8.49Z"/><path class="cls-2" d="M292.22,602.74v-25.13h-40.13v25.13h-20.14v-61.67c0-23.98,16.83-40.4,40.13-40.4s40.28,16.42,40.28,40.4v61.67h-20.14Zm-40.13-43.68h40.13v-17.99c0-12.56-7.91-20.42-20.14-20.42s-19.99,7.85-19.99,20.42v17.99Z"/><path class="cls-2" d="M378.67,522.22h-10.64c-7.91,0-10.93,4.43-10.93,9.57,0,10.14,16.4,26.27,16.4,42.97s-11.22,27.98-32.36,27.98h-13.95v-19.99h9.06c8.49,0,14.1-3.71,14.1-11.14,0-10.42-16.25-27.12-16.25-43.97,0-15.13,11.22-25.27,30.06-25.27h14.53v19.84Z"/><path class="cls-2" d="M492.01,502.38v19.27h-24.31v81.09h-20.14v-81.09h-24.31v-19.27h68.76Z"/><path class="cls-2" d="M526.53,502.38v41.54h43.87v-41.54h20.14v100.36h-20.14v-40.26h-43.87v40.26h-20.14v-100.36h20.14Z"/><path class="cls-2" d="M666.63,502.38v19.27h-34.67v22.27h32.8v18.56h-32.8v20.99h34.67v19.27h-54.8v-100.36h54.8Z"/><path class="cls-2" d="M766.02,502.38c17.26,0,31.21,13.99,31.21,30.98,0,8.57-3.6,15.56-9.35,20.27,4.46,4.57,7.34,10.85,7.34,18.27,0,16.85-14.1,30.84-31.36,30.84h-38.26v-100.36h40.42Zm-20.28,41.97h20.28c6.19,0,11.08-5.14,11.08-10.99s-5.03-10.99-11.08-10.99h-20.28v21.99Zm0,38.4h18.12c6.04,0,11.08-5.14,11.08-10.99s-5.04-10.99-11.08-10.99h-18.12v21.99Z"/><path class="cls-2" d="M868.58,502.38v19.27h-34.67v22.27h32.8v18.56h-32.8v20.99h34.67v19.27h-54.8v-100.36h54.8Z"/><path class="cls-2" d="M946.68,602.74v-25.13h-40.13v25.13h-20.14v-61.67c0-23.98,16.83-40.4,40.13-40.4s40.28,16.42,40.28,40.4v61.67h-20.14Zm-40.13-43.68h40.13v-17.99c0-12.56-7.91-20.42-20.14-20.42s-19.99,7.85-19.99,20.42v17.99Z"/><path class="cls-2" d="M1009.82,502.38v54.25c0,16.28,11.65,27.84,33.8,27.84s33.8-11.56,33.8-27.84v-54.25h20.14l-.14,55.68c0,23.13-18.84,46.11-53.8,46.11s-53.94-22.98-53.94-46.11v-55.68h20.14Z"/><path class="cls-2" d="M1182.29,502.38v19.27h-24.31v81.09h-20.14v-81.09h-24.31v-19.27h68.76Z"/><path class="cls-2" d="M1271.04,502.38v29.12c0,20.42-12.23,35.26-30.06,39.4v31.84h-20.14v-31.84c-18.12-4-30.21-18.99-30.21-39.4v-29.12h20.14v29.12c0,12.56,7.91,20.42,20.14,20.42s19.99-7.85,19.99-20.42v-29.12h20.14Z"/><path class="cls-2" d="M119.41,721.31c-17.94,0-29.62-16.85-29.62-51.82s11.53-51.54,29.62-51.54,29.76,16.99,29.76,51.54-11.53,51.82-29.76,51.82Zm0-19.7c5.55,0,9.83-7.85,9.83-32.12s-4.27-31.84-9.83-31.84-9.68,7.71-9.68,31.84,4.27,32.12,9.68,32.12Z"/><path class="cls-2" d="M198.87,619.38v19.27h-17.8v21.56h17.8v18.56h-17.8v40.97h-19.94v-100.36h37.73Z"/><path class="cls-2" d="M282.6,619.38v19.27h-15.52v81.09h-19.94v-81.09h-15.52v-19.27h50.98Z"/><path class="cls-2" d="M312.93,619.38v40.97h18.08v-40.97h19.94v100.36h-19.94v-40.83h-18.08v40.83h-19.94v-100.36h19.94Z"/><path class="cls-2" d="M463.16,619.38v19.27h-71.48v21.84h68.63v18.56h-68.63v21.41h71.48v19.27h-91.42v-100.36h91.42Z"/><path class="cls-2" d="M552.02,619.38c24.06,0,41.01,18.42,41.01,39.54,0,13.13-6.55,25.27-17.23,32.55l2.14,3.28c3.13,4.71,7.12,5.71,13.53,5.71v19.27c-16.09,0-22.07-2.86-28.91-13.56l-4.98-7.85c-1.57,.14-3.28,.29-4.84,.29h-10.82v21.13h-19.94v-100.36h30.05Zm-10.11,59.25h10.68c11.25,0,20.5-8.28,20.5-19.56s-9.26-19.7-20.5-19.7h-10.68v39.26Z"/><path class="cls-2" d="M669.21,719.74v-25.13h-39.73v25.13h-19.94v-61.67c0-23.98,16.66-40.4,39.73-40.4s39.87,16.42,39.87,40.4v61.67h-19.94Zm-39.73-43.68h39.73v-17.99c0-12.56-7.83-20.42-19.94-20.42s-19.79,7.85-19.79,20.42v17.99Z"/><path class="cls-2" d="M730.16,619.38v100.36h-19.94v-100.36h19.94Z"/><path class="cls-2" d="M754.08,619.38l60.52,56.82v-56.82h19.93v100.36h-2.85l-60.52-56.82v56.82h-19.94v-100.36h2.85Z"/><path class="cls-2" d="M882.38,619.38c28.76,0,51.83,21.7,51.83,50.25s-23.07,50.11-51.83,50.11h-26.77v-100.36h26.77Zm-6.83,81.09h6.83c17.66,0,31.9-13.42,31.9-30.84s-14.38-30.98-31.9-30.98h-6.83v61.82Z"/><path class="cls-2" d="M979.07,619.38c24.06,0,41.01,18.42,41.01,39.54,0,13.13-6.55,25.27-17.23,32.55l2.14,3.28c3.13,4.71,7.12,5.71,13.53,5.71v19.27c-16.09,0-22.07-2.86-28.91-13.56l-4.98-7.85c-1.57,.14-3.27,.29-4.84,.29h-10.82v21.13h-19.94v-100.36h30.05Zm-10.11,59.25h10.68c11.25,0,20.5-8.28,20.5-19.56s-9.26-19.7-20.5-19.7h-10.68v39.26Z"/><path class="cls-2" d="M1134.14,669.63c0,28.55-23.21,51.82-51.83,51.82s-51.97-23.41-51.97-51.82,23.35-51.96,51.97-51.96,51.83,23.56,51.83,51.96Zm-83.87,.14c0,17.42,14.38,31.69,31.9,31.69s32.04-14.28,32.04-31.84-14.38-31.98-32.04-31.98-31.9,14.56-31.9,32.12Z"/><path class="cls-2" d="M1178.99,619.38c24.06,0,41.01,18.42,41.01,39.54s-16.8,39.12-40.3,39.69h-10.82v21.13h-19.94v-100.36h30.05Zm-10.11,59.25h10.68c11.25,0,20.5-8.28,20.5-19.56s-9.26-19.7-20.5-19.7h-10.68v39.26Z"/><path class="cls-2" d="M1276.54,639.22h-10.54c-7.83,0-10.82,4.43-10.82,9.57,0,10.14,16.23,26.27,16.23,42.97s-11.11,27.98-32.04,27.98h-13.81v-19.99h8.97c8.4,0,13.95-3.71,13.95-11.14,0-10.42-16.09-27.12-16.09-43.97,0-15.13,11.11-25.27,29.76-25.27h14.38v19.84Z"/></g></svg>

<svg xmlns="http://www.w3.org/2000/svg" viewBox="0 0 1366 768"><defs><style>.cls-1{fill:red;}.cls-2{fill:#fff;}</style></defs><g id="Layer_1" data-name="Layer 1"><rect class="cls-1" x="-91.44" y="-79.94" width="1495.88" height="930.38"/><rect class="cls-1" x="-102" y="-88" width="1517" height="940.05"/><path class="cls-2" d="M256,34.38V53.65H185.49v61.82H256v19.27H94.87V115.47h70.48V53.65H94.87V34.38Z"/><path class="cls-2" d="M416.06,84.63c0,28.55-23.44,51.82-52.35,51.82S311.2,113,311.2,84.63s23.59-52,52.51-52S416.06,56.22,416.06,84.63Zm-84.72.14c0,17.42,14.53,31.69,32.22,31.69s32.37-14.27,32.37-31.83a32.3,32.3,0,0,0-64.59.14Z"/><path class="cls-2" d="M435.62,34.38l25.89,59.53,25.9-59.53h21L463,134.74h-2.87L414.62,34.38Z"/><path class="cls-2" d="M678.71,34.38V53.65h-141V75.92h141V94.48h-141v21h141v19.27H517.61V34.38Z"/><path class="cls-2" d="M727.47,34.38c24.31,0,41.43,18.41,41.43,39.54a39.29,39.29,0,0,1-17.41,32.55l2.16,3.28c3.16,4.72,7.19,5.72,13.66,5.72v19.27c-16.25,0-22.29-2.86-29.2-13.56l-5-7.86c-1.58.15-3.31.29-4.89.29H717.26v21.13H697.12V34.38ZM717.26,93.62H728c11.37,0,20.72-8.28,20.72-19.56s-9.35-19.7-20.72-19.7H717.26Z"/><path class="cls-2" d="M830.6,54.22H820c-7.91,0-10.94,4.43-10.94,9.57,0,10.13,16.4,26.26,16.4,43,0,16.13-11.22,28-32.36,28H779.11v-20h9.06c8.48,0,14.09-3.71,14.09-11.13,0-10.43-16.25-27.13-16.25-44,0-15.14,11.22-25.27,30.06-25.27H830.6Z"/><path class="cls-2" d="M866.13,34.38v81.09h33.23v19.27H846V34.38Z"/><path class="cls-2" d="M1007.53,34.38V53.65H935.31V75.49h69.34V94.05H935.31v21.42h72.22v19.27H915.18V34.38Z"/><path class="cls-2" d="M1056.14,34.38c24.31,0,41.43,18.41,41.43,39.54s-17,39.12-40.71,39.69h-10.93v21.13h-20.14V34.38Zm-10.21,59.24h10.78c11.37,0,20.72-8.28,20.72-19.56s-9.35-19.7-20.72-19.7h-10.78Z"/><path class="cls-2" d="M1278.09,34.38V53.65h-76.24v81.09h-20.14V53.65h-76.24V34.38Z"/><path class="cls-2" d="M187.43,251.74,159.1,194.06l-28.34,57.68h-8.49L94.08,151.38h20.28L130,207.91l27.62-56.53h2.87l27.62,56.53,15.68-56.53h20.28L195.92,251.74Z"/><path class="cls-2" d="M256.47,151.38v41.54h43.87V151.38h20.14V251.74H300.34V211.48H256.47v40.26H236.33V151.38Z"/><path class="cls-2" d="M437,151.38v19.27H364.78v21.84h69.33v18.56H364.78v21.42H437v19.27H344.64V151.38Z"/><path class="cls-2" d="M458.13,151.38l167.29,71.09V151.38h20.14V251.74h-2.88l-167.29-71.1v71.1H455.25V151.38Z"/><path class="cls-2" d="M878.86,151.38v19.27H802.63v81.09H782.49V170.65H706.25V151.38Z"/><path class="cls-2" d="M893.53,251.74V151.38h20.14v41.54h150V151.38h20.14V251.74H1063.7V211.48h-150v40.26Z"/><path class="cls-2" d="M1266.22,151.38v19.27h-141v22.27h141v18.56h-141v21h141v19.27h-161.1V151.38Z"/><path class="cls-2" d="M160.53,347.47a38.58,38.58,0,0,1-4,.14H117.09v21.13H97V268.38h59.26c24.31,0,41.43,18.41,41.43,39.54a39.53,39.53,0,0,1-18,33l1.87,2.85c3.16,4.72,7.62,5.72,15.1,5.72v19.27c-16.25,0-23.3-3.14-30.64-13.56Zm-43.44-19.85h39.7c11.37,0,20.72-8.28,20.72-19.56s-9.35-19.7-20.72-19.7h-39.7Z"/><path class="cls-2" d="M304.66,359.46H236.34l-5.61,9.28H207.85l61.28-100.36H272l61.13,100.36H310.27Zm-57.1-18.56h45.88l-22.87-38.12Z"/><path class="cls-2" d="M364.06,268.38V368.74H343.93V268.38Z"/><path class="cls-2" d="M388.23,268.38l61.13,56.82V268.38H469.5V368.74h-2.88l-61.13-56.82v56.82H385.35V268.38Z"/><path class="cls-2" d="M675.48,268.38c21.57,0,35.53,13.85,35.53,31a23.55,23.55,0,0,1-10.94,20.55c5.33,4.57,8.78,10.85,8.78,18.13,0,17.14-14,30.7-35.53,30.7H536.81V268.38ZM557,310.35H675c10.36,0,15.25-5,15.25-11s-4.89-11-15.25-11H557Zm0,38.4H672.89c10.35,0,15.24-4.71,15.24-10.71s-4.89-10-15.24-10H557Z"/><path class="cls-2" d="M888.21,268.38v19.27h-141v22.27h141v18.56h-141v21h141v19.27H727.11V268.38Z"/><path class="cls-2" d="M1002.13,287.65H954.66c-19.85,0-31.93,13.56-31.93,30.69,0,17.42,12.08,31.13,32.08,31.13h32.07V318.63h18.27v50.11H954.81c-31.36,0-52.36-21.7-52.36-50.4,0-28.12,20.85-50,51.49-50h48.19Z"/><path class="cls-2" d="M1046.14,268.38v54.25c0,16.27,11.65,27.83,33.81,27.83s33.8-11.56,33.8-27.83V268.38h20.14l-.15,55.67c0,23.13-18.84,46.12-53.79,46.12s-54-23-54-46.12V268.38Z"/><path class="cls-2" d="M1162.51,268.38l86.88,62.53V268.38h20.14V368.74h-2.88l-86.88-62.53v62.53h-20.14V268.38Z"/><path class="cls-2" d="M119,385.38,149.6,485.74H127.81l-2.42-10.28H106.74l-2.28,10.28H83l30.33-100.36Zm-5,57.53-3.42,15.7h11l-3.28-15.7-2.13-17.13Z"/><path class="cls-2" d="M181.92,385.38v81.09h63.23v19.27H162V385.38Z"/><path class="cls-2" d="M281.75,385.38v81.09H345v19.27H261.81V385.38Z"/><path class="cls-2" d="M417.88,385.38V485.74H397.94V385.38Z"/><path class="cls-2" d="M485.09,385.38l60.52,56.82V385.38h19.93V485.74H562.7l-60.52-56.82v56.82H482.24V385.38Z"/><path class="cls-2" d="M704.24,435.63c0,28.69-20.08,51.82-60.66,51.82-41.15,0-61.23-23.41-61.23-51.82s20.22-52,61.23-52C684.16,383.66,704.24,407.22,704.24,435.63Zm-102,0c0,17.56,11.25,31.83,41.3,31.83,29.33,0,40.72-14.27,40.72-31.83s-11.39-32-40.86-32C613.53,403.65,602.28,418.07,602.28,435.63Z"/><path class="cls-2" d="M812.46,385.38v19.27H771.31v81.09H751.37V404.65H710.22V385.38Z"/><path class="cls-2" d="M845.21,385.38V485.74H825.28V385.38Z"/><path class="cls-2" d="M959.13,404.65h-47c-19.65,0-31.61,13.56-31.61,30.69,0,17.42,12,31.13,31.75,31.13h46.85v19.27H912.28c-31,0-51.83-21.7-51.83-50.4,0-28.12,20.65-50,51-50h47.7Z"/><path class="cls-2" d="M1070.34,385.38v19.27H998.86v21.84h68.64v18.56H998.86v21.42h71.48v19.27H978.93V385.38Z"/><path class="cls-2" d="M1226.41,385.38c28.62,0,51.69,21.55,51.69,50.25s-23.07,50.11-51.69,50.11h-138V385.38Zm-118,81.09h118c17.51,0,31.76-13.28,31.76-30.84s-14.25-31-31.76-31h-118Z"/><path class="cls-2" d="M185.78,602.74l-28.34-57.68-28.33,57.68h-8.49L92.43,502.38h20.28l15.68,56.53L156,502.38h2.88l27.62,56.53,15.68-56.53h20.28L194.27,602.74Z"/><path class="cls-2" d="M292.22,602.74V577.61H252.09v25.13H232V541.07c0-24,16.83-40.41,40.13-40.41s40.28,16.42,40.28,40.41v61.67Zm-40.13-43.69h40.13v-18c0-12.57-7.91-20.42-20.14-20.42-12.08,0-20,7.85-20,20.42Z"/><path class="cls-2" d="M378.67,522.22H368c-7.91,0-10.93,4.43-10.93,9.57,0,10.13,16.4,26.26,16.4,43,0,16.13-11.22,28-32.37,28H327.17v-20h9.06c8.49,0,14.1-3.71,14.1-11.13,0-10.43-16.26-27.13-16.26-44,0-15.14,11.22-25.27,30.07-25.27h14.53Z"/><path class="cls-2" d="M492,502.38v19.27H467.7v81.09H447.56V521.65H423.25V502.38Z"/><path class="cls-2" d="M526.53,502.38v41.54H570.4V502.38h20.14V602.74H570.4V562.48H526.53v40.26H506.39V502.38Z"/><path class="cls-2" d="M666.63,502.38v19.27H632v22.27h32.8v18.56H632v21h34.67v19.27h-54.8V502.38Z"/><path class="cls-2" d="M766,502.38a31.17,31.17,0,0,1,31.22,31,25.56,25.56,0,0,1-9.35,20.27,25.82,25.82,0,0,1,7.33,18.27c0,16.85-14.1,30.84-31.36,30.84H725.6V502.38Zm-20.28,42H766a11,11,0,1,0,0-22H745.74Zm0,38.4h18.12a11,11,0,1,0,0-22H745.74Z"/><path class="cls-2" d="M868.58,502.38v19.27H833.91v22.27h32.8v18.56h-32.8v21h34.67v19.27H813.77V502.38Z"/><path class="cls-2" d="M946.68,602.74V577.61H906.55v25.13H886.41V541.07c0-24,16.83-40.41,40.13-40.41,23.45,0,40.28,16.42,40.28,40.41v61.67Zm-40.13-43.69h40.13v-18c0-12.57-7.91-20.42-20.14-20.42-12.08,0-20,7.85-20,20.42Z"/><path class="cls-2" d="M1009.82,502.38v54.25c0,16.27,11.65,27.83,33.81,27.83s33.8-11.56,33.8-27.83V502.38h20.14l-.15,55.67c0,23.13-18.84,46.12-53.79,46.12s-54-23-54-46.12V502.38Z"/><path class="cls-2" d="M1182.29,502.38v19.27H1158v81.09h-20.14V521.65h-24.31V502.38Z"/><path class="cls-2" d="M1271,502.38V531.5c0,20.42-12.23,35.26-30.07,39.4v31.84h-20.14V570.9c-18.12-4-30.2-19-30.2-39.4V502.38h20.14V531.5c0,12.56,7.91,20.42,20.13,20.42s20-7.86,20-20.42V502.38Z"/><path class="cls-2" d="M119.41,721.31c-17.94,0-29.61-16.85-29.61-51.82,0-34.55,11.53-51.54,29.61-51.54s29.76,17,29.76,51.54C149.17,704.46,137.64,721.31,119.41,721.31Zm0-19.7c5.56,0,9.83-7.85,9.83-32.12s-4.27-31.84-9.83-31.84c-5.41,0-9.68,7.71-9.68,31.84S114,701.61,119.41,701.61Z"/><path class="cls-2" d="M198.87,619.38v19.27h-17.8v21.56h17.8v18.56h-17.8v41H161.14V619.38Z"/><path class="cls-2" d="M282.6,619.38v19.27H267.08v81.09H247.14V638.65H231.62V619.38Z"/><path class="cls-2" d="M312.93,619.38v41H331v-41H351V719.74H331V678.91H312.93v40.83H293V619.38Z"/><path class="cls-2" d="M463.16,619.38v19.27H391.68v21.84h68.63v18.56H391.68v21.42h71.48v19.27H371.74V619.38Z"/><path class="cls-2" d="M552,619.38c24.06,0,41,18.41,41,39.54a39.4,39.4,0,0,1-17.23,32.55l2.13,3.28c3.14,4.72,7.12,5.72,13.53,5.72v19.27c-16.09,0-22.07-2.86-28.91-13.56l-5-7.86c-1.57.15-3.28.29-4.84.29H541.91v21.13H522V619.38Zm-10.11,59.24h10.68c11.25,0,20.5-8.28,20.5-19.56s-9.25-19.7-20.5-19.7H541.91Z"/><path class="cls-2" d="M669.21,719.74V694.61H629.48v25.13H609.55V658.07c0-24,16.66-40.41,39.72-40.41,23.21,0,39.87,16.42,39.87,40.41v61.67Zm-39.73-43.69h39.73v-18c0-12.57-7.83-20.42-19.94-20.42s-19.79,7.85-19.79,20.42Z"/><path class="cls-2" d="M730.16,619.38V719.74H710.22V619.38Z"/><path class="cls-2" d="M754.08,619.38,814.6,676.2V619.38h19.93V719.74h-2.85l-60.51-56.82v56.82H751.23V619.38Z"/><path class="cls-2" d="M882.38,619.38c28.76,0,51.83,21.7,51.83,50.25s-23.07,50.11-51.83,50.11H855.61V619.38Zm-6.84,81.09h6.84c17.66,0,31.9-13.42,31.9-30.84s-14.39-31-31.9-31h-6.84Z"/><path class="cls-2" d="M979.07,619.38c24.06,0,41,18.41,41,39.54a39.4,39.4,0,0,1-17.23,32.55l2.13,3.28c3.14,4.72,7.12,5.72,13.53,5.72v19.27c-16.09,0-22.07-2.86-28.91-13.56l-5-7.86c-1.57.15-3.27.29-4.84.29H969v21.13H949V619.38ZM969,678.62h10.68c11.25,0,20.5-8.28,20.5-19.56s-9.25-19.7-20.5-19.7H969Z"/><path class="cls-2" d="M1134.14,669.63a51.91,51.91,0,1,1-51.83-52A51.87,51.87,0,0,1,1134.14,669.63Zm-83.87.14a32,32,0,1,0,31.89-32.12A31.91,31.91,0,0,0,1050.27,669.77Z"/><path class="cls-2" d="M1179,619.38c24.07,0,41,18.41,41,39.54s-16.8,39.12-40.29,39.69h-10.83v21.13H1149V619.38Zm-10.11,59.24h10.68c11.25,0,20.51-8.28,20.51-19.56s-9.26-19.7-20.51-19.7h-10.68Z"/><path class="cls-2" d="M1276.54,639.22H1266c-7.83,0-10.82,4.43-10.82,9.57,0,10.13,16.23,26.26,16.23,43,0,16.13-11.11,28-32,28h-13.81v-20h9c8.4,0,14-3.71,14-11.13,0-10.43-16.09-27.13-16.09-44,0-15.14,11.11-25.27,29.76-25.27h14.39Z"/></g></svg>
